svgs/sharp-solid/arrow-up-triangle-square.svg

<svg xmlns="http://www.w3.org/2000/svg" viewBox="0 0 576 512"><!--! Font Awesome Pro 6.6.0 by @fontawesome - https://fontawesome.com License - https://fontawesome.com/license (Commercial License) Copyright 2024 Fonticons, Inc. --><path d="M416 32L528 224l-224 0L416 32zm-256 .4l23.7 26 80 88 21.5 23.7-47.4 43.1-21.5-23.7L192 162.8 192 448l0 32-64 0 0-32 0-285.2-24.3 26.8L82.2 213.2 34.8 170.2l21.5-23.7 80-88 23.7-26zM512 480l-192 0 0-192 192 0 0 192z"/></svg>

<svg xmlns="http://www.w3.org/2000/svg" viewBox="0 0 576 512"><!--! Font Awesome Pro 6.4.2 by @fontawesome - https://fontawesome.com License - https://fontawesome.com/license (Commercial License) Copyright 2023 Fonticons, Inc. --><path d="M416 32L528 224H304L416 32zm-256 .4l23.7 26 80 88 21.5 23.7-47.4 43.1-21.5-23.7L192 162.8V448v32H128V448 162.8l-24.3 26.8L82.2 213.2 34.8 170.2l21.5-23.7 80-88 23.7-26zM512 480H320V288H512V480z"/></svg>
